X:1080
T:Drunken Piper, The
R:reel
O:Scottish
Z:id:hn-reel-1080
M:C|
L:1/8
K:Ador
A2AB e3f | edBd e2g2 | G2GB d3e | dBGB d2e2 |
A2AB e3f | edBd e2a2 | g2e2 eged |1 B2A2 A4 :|2 B2A2 A2e2 ||
|: a2ag e2a2 | edef g2a2 | G2GB d3e | dBGB d2e2 |
[1 a2ag e2a2 | edef g2a2 | g2e2 eged | B2A2 A2e2 :|
[2 A2AB e3f | edBd e2a2 | g2e2 eged | B2A2 A4 ||

